X:1
T:Title
%%score { ( 1 3 4 ) | ( 2 5 ) }
L:1/8
M:3/4
K:Eb
V:1 treble nm="Grand Piano"
V:3 treble 
V:4 treble 
V:2 treble 
V:5 treble 
V:1
 z2 z2[Q:1/4=100] GA | [GB]4 z2 | [Ac]2 B2 AG | [DF]3 E [DF]2 | [EG]4 z2 | z2 z =B [Ac]2 | %6
 [ce]4 z2 | [GB]4 z2 | [DF]4 [EG][FA] | [GB]4 z2 | [Ac]2 B2 AG | [DF]3 E [DF]2 | [EG]4 z2 | %13
 z2 z d [Ac]2 |[M:7/8] G2- [Ge]3 G2 |[M:3/4] [DF]3 A [B,DG]2 |[M:2/4] [G,E]4 |[M:1/4] [G,E][B,EG] | %18
[M:3/4] [B,FA]3 [B,EG] [B,DF]2 | [B,EG]4 [B,EG][EGB] | [EAc]3 [EBd] [EAc]2 | [GB]4 [GB]2 | %22
 [Ge]3 [Ge] [_Ge]2 | [Ge]4 [Bd][Ac] | [GB]3 [FA] [EG]2 | [DF]4 [DF][EG] | [FA]3 [EG] [DF]2 | %27
 [EG]4 [EG][GB] | [Ac]3 [Bd] [Ac]2 | [GB]4 [GB]2 | [Ge]3 [Ge] [_Ge]2 |[M:4/4] [Ge]6 [EG]2 | %32
[M:3/4] [DF]3 [DA] [DG]2 |[M:2/4] E4 |] %34
V:2
 z2 z2 EF | E,2 z[K:treble] _G G,2 | E,2 [G,B,G]2 FE | z2 B,2 z2 | E,2 G,2 G,2 | A,,2 z A [E,A,]2 | %6
 A,,2 E,2 z A | E,2 z[K:treble] A G,2 | B,,2 B,A, G,F, | E,2 z[K:treble] _G G,2 | E,2 [G,B,G]2 FE | %11
 z2 B,2 z2 | E,2 G,2 G,2 | A,,2 z[K:treble] B[K:bass] [E,A,]2 |[M:7/8] E,2 [G,B,]3 [G,B,E]2 | %15
[M:3/4] [B,,B,]2 z D B,,2 |[M:2/4] E,4 |[M:1/4] E,E, |[M:3/4] B,,3 B,, B,,2 | E,4 E,E, | %20
 A,3 A, A,2 | [E,E]4 [E,E]2 | [E,B,]3 [E,C] [E,=A,]2 | [E,B,]4 [E,E]2 | [E,E]3 [E,B,] [E,B,]2 | %25
 [B,,B,]4 [B,,B,][B,,B,] | [B,,B,]3 [B,,B,] [B,,B,]2 | [E,B,]4 [E,B,][E,E] | [A,E]3 [A,E] [A,E]2 | %29
 [E,E]4 [E,E]2 | [E,B,]3 [E,C] [E,=A,]2 |[M:4/4] [E,B,]6 [E,B,]2 | %32
[M:3/4] [B,,B,]3 [B,,B,] [B,,A,]2 |[M:2/4] [E,G,]4 |] %34
V:3
 x6 | z2 z =A [B,GB]2 | x6 | x6 | z2 B,2 [B,GB]2 | [Ac]4 z2 | z2 A,2 [Bd]c | z2 z c [B,GB]2 | x6 | %9
 z2 z =A [B,GB]2 | x6 | x6 | z2 B,2 [B,GB]2 | [Ac]4 z2 |[M:7/8] B2 z z z z2 |[M:3/4] x6 | %16
[M:2/4] x4 |[M:1/4] x2 |[M:3/4] x6 | x6 | x6 | x6 | x6 | x6 | x6 | x6 | x6 | x6 | x6 | x6 | x6 | %31
[M:4/4] x8 |[M:3/4] x6 |[M:2/4] x4 |] %34
V:4
 x6 | z2 B,2 z2 | x6 | x6 | x6 | z2 A,2 z2 | x6 | z2 B,2 z2 | x6 | z2 B,2 z2 | x6 | x6 | x6 | %13
 z2 A,2 z2 |[M:7/8] x7 |[M:3/4] x6 |[M:2/4] x4 |[M:1/4] x2 |[M:3/4] x6 | x6 | x6 | x6 | x6 | x6 | %24
 x6 | x6 | x6 | x6 | x6 | x6 | x6 |[M:4/4] x8 |[M:3/4] x6 |[M:2/4] x4 |] %34
V:5
 x6 | z2 G,2[K:treble] z2 | z2 z2 [G,B,]2 | B,,2 z C B,2 | x6 | z2 E,2 z2 | z2 z2 [E,A,]2 | %7
 z2 G,2[K:treble] z2 | x6 | z2 G,2[K:treble] z2 | z2 z2 [G,B,]2 | B,,2 z C B,2 | x6 | %13
 z2 E,2[K:treble][K:bass] z2 |[M:7/8] x7 |[M:3/4] x6 |[M:2/4] x4 |[M:1/4] x2 |[M:3/4] x6 | x6 | %20
 x6 | x6 | x6 | x6 | x6 | x6 | x6 | x6 | x6 | x6 | x6 |[M:4/4] x8 |[M:3/4] x6 |[M:2/4] x4 |] %34

